assets/picto-poesie.svg

<svg width="171" height="194" viewBox="0 0 171 194" fill="none" xmlns="http://www.w3.org/2000/svg">
<path d="M26.9001 131.2C23.0001 133.5 23.0001 137.6 21.2001 140.7C17.7001 146.6 15.5001 147.4 9.00006 144.2C3.80006 141.7 7.00007 138.1 8.10007 135C10.0001 129.8 13.6001 125.2 14.7001 119.5C12.3001 116.5 9.00005 117.8 6.30005 117.4C4.00005 117.1 1.20008 117.1 0.700076 114.3C0.300076 112 2.80008 111.2 4.70008 110.5C6.20008 109.9 7.90007 109.5 8.60007 107.6C8.60007 105 6.20005 103.8 4.80005 102.1C2.90005 99.9 1.60006 97.7 4.00006 95.1C6.00006 92.9 8.80005 92.3 11.3001 93.8C15.0001 95.9 18.3001 98.5 22.1001 101C25.4001 97.2 25.5001 92.6 27.6001 88.9C29.6001 85.5 31.9001 82.6 36.3001 84.2C40.9001 85.9 40.5001 89.6 39.4001 93.4C38.9001 95 38.5001 96.6 38.1001 98.2C37.4001 101.7 38.4001 104 42.4001 104.4C46.5001 104.8 52.3001 103.9 52.1001 110.1C52.0001 115.5 46.4001 114.5 42.7001 115.2C35.6001 116.5 35.4001 117 39.8001 123.1C41.9001 126.1 44.2001 129 46.2001 132C47.8001 134.4 48.2001 137 46.4001 139.5C44.6001 141.9 42.3001 140.2 40.1001 140.4C33.1001 141 31.3001 134.1 26.9001 131.2Z" fill="black"/>
<path d="M129.3 21.7C126.7 16.2 124.4 11.8 122.5 7.29997C121.6 5.19998 121 2.40001 123.4 0.900012C126.3 -0.799989 128.4 1.10001 130.1 3.40001C132.4 6.60001 134.5 10.1 137.6 12.5C141.7 11.5 141.9 7.39997 144.4 5.29997C147.1 2.99997 150.1 1.29999 153.4 3.49999C156.8 5.69999 155.2 8.59999 154 11.5C149.8 21.5 149.8 21.5 160.4 21.2C162 21.2 163.7 21.3 165.3 21.8C168 22.6 170.2 24.3 170.1 27.4C170 30.5 167.9 32.3 165 32.6C161 33 157 33.1 153 33.2C149.8 33.3 148.8 34.9 149.9 37.8C151 40.9 152.7 43.9 153.4 47.1C154.5 52 152.3 54 147.4 53C143.6 52.3 143.4 52.1 138.7 45.8C136.1 46.7 136 49.4 134.9 51.3C132.5 55.2 129.4 54.2 126.2 52.9C122.5 51.4 122.5 48.6 123.6 45.4C124 44.1 124.4 42.9 124.9 41.6C128 33.2 128 33.2 119.2 30.3C117.4 29.7 115.1 29.3 115.2 26.7C115.3 24.4 117.1 23.3 119.1 22.9C120.7 22.6 122.4 22.6 124.1 22.4C125.3 22.4 126.6 22.1 129.3 21.7Z" fill="black"/>
<path d="M106.4 154.9C109.9 152.4 110.5 148.9 112.3 146.1C114.1 143.2 115.9 139.9 120 141.9C124 143.9 122.6 147.4 121.7 150.7C121.4 151.7 121.1 152.6 120.7 153.5C118.2 160.6 118.2 160.6 125.2 163.6C125.8 163.9 126.4 164.1 127 164.4C129.2 165.6 130.7 167.3 130.4 170C130.1 172.7 128.2 173.9 125.7 174.4C123.5 174.9 121 173.5 118.8 175.3C117.8 179.4 121.7 181.7 122.5 185.1C123.7 189.8 121.6 191.6 116.8 190.9C112.6 190.3 110 187.2 107 185.2C104.3 186.7 104 189.3 102.6 191.1C100.1 194.4 96.8 194.2 93.6 192.7C90.4 191.2 91.4 188.4 92 185.8C92.8 182.7 95.3 179.9 94 176C91 175.2 87.7 174.8 84.7 173.6C82.3 172.7 82.3 170.6 84.3 169C86.2 167.5 88.5 166.9 90.8 166.7C95.8 166.2 95.9 163.3 94.1 159.7C92.6 156.7 91 153.9 89.3 151C88.3 149.2 87.6 147.2 89.3 145.5C91.2 143.5 93.6 144.1 95.7 145.2C100.1 147.4 102.1 152 106.4 154.9Z" fill="black"/>
</svg>

<svg fill="none" height="194" viewBox="0 0 171 194" width="171" xmlns="http://www.w3.org/2000/svg"><path d="m26.9 131.2c-3.9 2.3-3.9 6.4-5.7 9.5-3.5 5.9-5.7 6.7-12.2 3.5-5.2-2.5-2-6.1-.9-9.2 1.9-5.2 5.5-9.8 6.6-15.5-2.4-3-5.7-1.7-8.4-2.1-2.3-.3-5.1-.3-5.6-3.1-.4-2.3 2.1-3.1 4-3.8 1.5-.6 3.2-1 3.9-2.9 0-2.6-2.4-3.8-3.8-5.5-1.9-2.2-3.2-4.4-.8-7 2-2.2 4.8-2.8 7.3-1.3 3.7 2.1 7 4.7 10.8 7.2 3.3-3.8 3.4-8.4 5.5-12.1 2-3.4 4.3-6.3 8.7-4.7 4.6 1.7 4.2 5.4 3.1 9.2-.5 1.6-.9 3.2-1.3 4.8-.7 3.5.3 5.8 4.3 6.2 4.1.4 9.9-.5 9.7 5.7-.1 5.4-5.7 4.4-9.4 5.1-7.1 1.3-7.3 1.8-2.9 7.9 2.1 3 4.4 5.9 6.4 8.9 1.6 2.4 2 5 .2 7.5-1.8 2.4-4.1.7-6.3.9-7 .6-8.8-6.3-13.2-9.2zm102.4-109.5c-2.6-5.5-4.9-9.9-6.8-14.4-.9-2.1-1.5-4.9.9-6.4 2.9-1.7 5 .2 6.7 2.5 2.3 3.2 4.4 6.7 7.5 9.1 4.1-1 4.3-5.1 6.8-7.2 2.7-2.3 5.7-4 9-1.8 3.4 2.2 1.8 5.1.6 8-4.2 10-4.2 10 6.4 9.7 1.6 0 3.3.1 4.9.6 2.7.8 4.9 2.5 4.8 5.6s-2.2 4.9-5.1 5.2c-4 .4-8 .5-12 .6-3.2.1-4.2 1.7-3.1 4.6 1.1 3.1 2.8 6.1 3.5 9.3 1.1 4.9-1.1 6.9-6 5.9-3.8-.7-4-.9-8.7-7.2-2.6.9-2.7 3.6-3.8 5.5-2.4 3.9-5.5 2.9-8.7 1.6-3.7-1.5-3.7-4.3-2.6-7.5.4-1.3.8-2.5 1.3-3.8 3.1-8.4 3.1-8.4-5.7-11.3-1.8-.6-4.1-1-4-3.6.1-2.3 1.9-3.4 3.9-3.8 1.6-.3 3.3-.3 5-.5 1.2 0 2.5-.3 5.2-.7zm-22.9 133.2c3.5-2.5 4.1-6 5.9-8.8 1.8-2.9 3.6-6.2 7.7-4.2 4 2 2.6 5.5 1.7 8.8-.3 1-.6 1.9-1 2.8-2.5 7.1-2.5 7.1 4.5 10.1.6.3 1.2.5 1.8.8 2.2 1.2 3.7 2.9 3.4 5.6s-2.2 3.9-4.7 4.4c-2.2.5-4.7-.9-6.9.9-1 4.1 2.9 6.4 3.7 9.8 1.2 4.7-.9 6.5-5.7 5.8-4.2-.6-6.8-3.7-9.8-5.7-2.7 1.5-3 4.1-4.4 5.9-2.5 3.3-5.8 3.1-9 1.6s-2.2-4.3-1.6-6.9c.8-3.1 3.3-5.9 2-9.8-3-.8-6.3-1.2-9.3-2.4-2.4-.9-2.4-3-.4-4.6 1.9-1.5 4.2-2.1 6.5-2.3 5-.5 5.1-3.4 3.3-7-1.5-3-3.1-5.8-4.8-8.7-1-1.8-1.7-3.8 0-5.5 1.9-2 4.3-1.4 6.4-.3 4.4 2.2 6.4 6.8 10.7 9.7z" fill="#000"/></svg>
